app/static/icons/star.svg

<svg viewBox="-1 -1 18 20" xmlns="http://www.w3.org/2000/svg">
<path d="M9.86903 0.533677L11.8992 4.59618C12.0404 4.87873 12.3133 5.07452 12.6291 5.11975L17.1689 5.77125C17.9642 5.88546 18.2815 6.85029 17.7062 7.40389L14.4212 10.5661C14.193 10.786 14.0886 11.103 14.1426 11.4134L14.918 15.8786C15.0539 16.6606 14.2226 17.2568 13.5115 16.8879L9.45113 14.7799C9.16877 14.6334 8.83123 14.6334 8.54887 14.7799L4.48853 16.8879C3.77739 17.2572 2.94609 16.6606 3.08201 15.8786L3.85736 11.4134C3.91143 11.103 3.80705 10.786 3.57876 10.5661L0.293765 7.40389C-0.281457 6.84992 0.0358164 5.88509 0.831064 5.77125L5.37088 5.11975C5.68666 5.07452 5.95962 4.87873 6.1008 4.59618L8.13097 0.533677C8.48617 -0.177892 9.51346 -0.177892 9.86903 0.533677Z"/>
</svg>

<svg xmlns="http://www.w3.org/2000/svg" viewBox="-1 -1 18 20"><path d="M9.87.534l2.03 4.063a.97.97 0 0 0 .73.524l4.54.652c.795.114 1.113 1.08.537 1.633l-3.285 3.162a.95.95 0 0 0-.279.847l.775 4.465c.136.782-.695 1.378-1.406 1.01L9.45 14.78a.98.98 0 0 0-.902 0l-4.06 2.108c-.71.37-1.542-.227-1.407-1.01l.775-4.465a.95.95 0 0 0-.279-.847L.294 7.404C-.28 6.85.036 5.885.83 5.77l4.54-.652a.97.97 0 0 0 .73-.524L8.13.534c.355-.712 1.382-.712 1.738 0z"/></svg>
